X: 4126
T: SWEET MOLLY
R: Reel.
%R: reel
B: James Kerr "Merry Melodies" v.4 p.15 #126
Z: 2016 John Chambers <jc:trillian.mit.edu>
M: C
L: 1/8
K: Em
|:\
Eeef e2(dB) | defd eBdA |\
Beef e2(dB) | ABdF E/E/E E2 ::\
F/F/F (FE) DEFA | B/B/B (BA) Bdef |\
dBdA Beef | dBdF E/E/E E2 :|

%%sep 1 1 500
%%sep 1 1 500

